X: 1
T:The Easdale Island Rag
M:4/4
L:1/8
Q:200
C:Stephen P. McNally
K:G
|:d>eg>e- e>dB>G|F>GA>F- F>ED>E|F>FF>D G>GG>D|A>DB>D c>AF>A|!
d>eg>e- e>dB>G|F>GA>F- F>ED>E|F>DG>D A>DB>D|c>AF>G- G4:|!
|:A>DB>A- A>GF>G|A>DB>A- A>B^c>d|A>DB>A- A>GF>D|F>FF>D G>GG>D|!
A>DB>A- A>GF>G|A>DB>D A>B^c>d|F>DG>D A>DB>D|c>AF>G- G4:|!
